images_sukapura_svg/cmd/sc_printdefault.svg

<svg viewBox="0 0 16 16" xmlns="http://www.w3.org/2000/svg" xmlns:xlink="http://www.w3.org/1999/xlink"><linearGradient id="a" gradientUnits="userSpaceOnUse" x1="-18.557169" x2="-18.350272" y1="4.032234" y2=".245018"><stop offset="0" stop-color="#0040dd"/><stop offset="1" stop-color="#0a84ff"/></linearGradient><linearGradient id="b" gradientUnits="userSpaceOnUse" x1="9.5" x2="9.5" y1="7" y2="10"><stop offset="0" stop-color="#fff"/><stop offset=".08333334" stop-color="#fff" stop-opacity=".055147"/><stop offset="1" stop-color="#fff" stop-opacity=".247059"/><stop offset="1" stop-color="#fff" stop-opacity=".481618"/></linearGradient>





     /&amp;amp;amp;gt;
 <rect fill="url(#a)" height="4.29661" ry="1" width="12" x="2" y="3.70339"/><path d="m5 11v4h6v-4z" fill="#fff" fill-rule="evenodd"/><path d="m4 12v3.142578c0 .474857.3825649.857422.8574219.857422h6.2851561c.474857 0 .838139-.382957.857422-.857422v-3.142578h-1v3h-6v-3z" fill="#98989d"/><path d="m4 1v4h8v-4z" fill="#fff" fill-rule="evenodd"/><path d="m13 10h2v1h-2z" fill="#fff"/><path d="m3.8574219 0c-.474857 0-.8574219.38256487-.8574219.85742188v5.14257812h1 8 1v-5.14257812c0-.47485701-.382565-.85742188-.857422-.85742188zm.1425781 1h8v4h-8z" fill="#98989d"/><path d="m1.5 5.5c-.554 0-1 .446-1 1v4c0 .554.446 1 1 1h2 1 7.5 2.5c.554 0 1-.446 1-1v-4c0-.554-.446-1-1-1h-1v2h-.5-9.5-1v-2z" fill="#98989d" stroke="#616165"/><path d="m2 6.5h.5v2h11v-2h.5c.277 0 .5.446.5 1v2c0 .554-.223 1-.5 1h-12c-.277 0-.5-.446-.5-1v-2c0-.554.223-1 .5-1z" fill="none" stroke="url(#b)" stroke-opacity=".658088"/><g fill-rule="evenodd"><path d="m9.8222656 0-2.6171875 3.3847656c-.3589021.4653055-.2434835 1.1379796.25 1.4570313l-1.3535156 2.7089843c-.4664408.9364373.6307099 1.8731352 1.4824219 1.265625l6.3574216-4.5410156c-.082519-.1620667-.246406-.7753906-.441406-.7753906h-.5v-3c0-.277-.223-.5-.5-.5z" fill="#fff" fill-opacity=".784314"/><path d="m11.094376 0h4.905624l-3 3h1l-7 5 2-4h-1z" fill="#ff9500"/></g></svg>

<?xml version="1.0" encoding="UTF-8" standalone="no"?>
<svg
   xmlns:dc="http://purl.org/dc/elements/1.1/"
   xmlns:cc="http://creativecommons.org/ns#"
   xmlns:rdf="http://www.w3.org/1999/02/22-rdf-syntax-ns#"
   xmlns:svg="http://www.w3.org/2000/svg"
   xmlns="http://www.w3.org/2000/svg"
   xmlns:xlink="http://www.w3.org/1999/xlink"
   xmlns:sodipodi="http://sodipodi.sourceforge.net/DTD/sodipodi-0.dtd"
   xmlns:inkscape="http://www.inkscape.org/namespaces/inkscape"
   viewBox="0 0 16 16"
   version="1.1"
   id="svg27"
   sodipodi:docname="sc_printdefault.svg"
   inkscape:version="0.92.3 (unknown)"><metadata
   id="metadata33">
  <rdf:RDF>
    <cc:Work
       rdf:about="">
      <dc:format>image/svg+xml</dc:format>
      <dc:type
         rdf:resource="http://purl.org/dc/dcmitype/StillImage" />
      <dc:title></dc:title>
    </cc:Work>
  </rdf:RDF>
</metadata>
<defs
   id="defs31">
  <linearGradient
     gradientTransform="translate(-25.830508,-3.5932203)"
     id="a-3"
     gradientUnits="userSpaceOnUse"
     x1="14"
     x2="13.79661"
     y1="22"
     y2="2.1355929">
    <stop
       offset="0"
       stop-color="#0040dd"
       id="stop2-6" />
    <stop
       offset="1"
       stop-color="#0a84ff"
       id="stop4-7" />
  </linearGradient>
  <linearGradient
     inkscape:collect="always"
     xlink:href="#a-3"
     id="linearGradient1425"
     gradientUnits="userSpaceOnUse"
     gradientTransform="matrix(-1,0,0,1,-29.010942,26.95119)"
     x1="-31.010942"
     y1="-4.95119"
     x2="-31.010942"
     y2="-16.951191" />
  <linearGradient
     inkscape:collect="always"
     xlink:href="#a-3"
     id="linearGradient868"
     x1="7.2733388"
     y1="7.6254539"
     x2="7.4802356"
     y2="3.838238"
     gradientUnits="userSpaceOnUse" />
</defs>
<sodipodi:namedview
   pagecolor="#ffffff"
   bordercolor="#666666"
   borderopacity="1"
   objecttolerance="10"
   gridtolerance="10"
   guidetolerance="10"
   inkscape:pageopacity="0"
   inkscape:pageshadow="2"
   inkscape:window-width="1366"
   inkscape:window-height="699"
   id="namedview29"
   showgrid="true"
   inkscape:zoom="29.5"
   inkscape:cx="13.928563"
   inkscape:cy="10.817538"
   inkscape:window-x="0"
   inkscape:window-y="0"
   inkscape:window-maximized="1"
   inkscape:current-layer="svg27">
  <inkscape:grid
     type="xygrid"
     id="grid1588"
     spacingx="0.5"
     spacingy="0.5"
     empspacing="2" />
</sodipodi:namedview>
<linearGradient
   id="a"
   gradientUnits="userSpaceOnUse"
   x1="9.5"
   x2="9.5"
   y1="7"
   y2="10">
  <stop
     offset="0"
     stop-color="#fff"
     id="stop2" />
  <stop
     offset=".08333334"
     stop-color="#fff"
     stop-opacity=".055147"
     id="stop4" />
  <stop
     offset="1"
     stop-color="#fff"
     stop-opacity=".247059"
     id="stop6" />
  <stop
     offset="1"
     stop-color="#fff"
     stop-opacity=".481618"
     id="stop8" />
</linearGradient>





     /&amp;amp;gt;
 <g
   id="g4764">
  <rect
     style="fill-opacity:1;fill:url(#linearGradient868)"
     id="rect11"
     y="3.70339"
     x="2"
     width="12"
     ry="1"
     height="4.29661"
     fill="#0a84ff" />
  <path
     id="path13"
     fill-rule="evenodd"
     fill="#fff"
     d="m5 11v4h6v-4z" />
  <path
     id="path15"
     fill="#98989d"
     d="m4 12v3.142578c0 .474857.3825649.857422.8574219.857422h6.2851561c.474857 0 .838139-.382957.857422-.857422v-3.142578h-1v3h-6v-3z" />
  <path
     id="path17"
     fill-rule="evenodd"
     fill="#fff"
     d="m4 1v4h8v-4z" />
  <path
     id="path19"
     fill="#fff"
     d="m13 10h2v1h-2z" />
  <path
     id="path21"
     fill="#98989d"
     d="m3.8574219 0c-.474857 0-.8574219.38256487-.8574219.85742188v5.14257812h1 8 1v-5.14257812c0-.47485701-.382565-.85742188-.857422-.85742188zm.1425781 1h8v4h-8z" />
  <path
     id="path23"
     stroke="#616165"
     fill="#98989d"
     d="m1.5 5.5c-.554 0-1 .446-1 1v4c0 .554.446 1 1 1h2 1 7.5 2.5c.554 0 1-.446 1-1v-4c0-.554-.446-1-1-1h-1v2h-.5-9.5-1v-2z" />
  <path
     id="path25"
     stroke-opacity=".658088"
     stroke="url(#a)"
     fill="none"
     d="m2 6.5h.5v2h11v-2h.5c.277 0 .5.446.5 1v2c0 .554-.223 1-.5 1h-12c-.277 0-.5-.446-.5-1v-2c0-.554.223-1 .5-1z" />
</g>
<path
   style="fill:#ffffff;fill-opacity:0.78431374;fill-rule:evenodd"
   d="M 9.8222656,0 7.2050781,3.3847656 c -0.3589021,0.4653055 -0.2434835,1.1379796 0.25,1.4570313 L 6.1015625,7.5507812 C 5.6351217,8.4872185 6.7322724,9.4239164 7.5839844,8.8164062 L 13.941406,4.2753906 C 13.858887,4.1133239 13.695,3.5 13.5,3.5 H 13 v -3 C 13,0.223 12.777,0 12.5,0 Z"
   id="path1616"
   inkscape:connector-curvature="0"
   sodipodi:nodetypes="ccccccscssc" />
<path
   inkscape:connector-curvature="0"
   d="M 11.094376,0 H 16 l -3,3 h 1 L 7,8 9,4 H 8 Z"
   id="path6"
   style="fill:#ff9500;fill-opacity:1;fill-rule:evenodd" />
</svg>
